packages/foundations/assets/icons/functional/images/date & time/calendar_28.svg

<svg width="28" height="28" viewBox="0 0 28 28" fill="none" xmlns="http://www.w3.org/2000/svg">
<g clip-path="url(#clip0_185_657)">
<path fill-rule="evenodd" clip-rule="evenodd" d="M17.5 4.375C17.9922 4.375 18.375 4.75781 18.375 5.2227V6.125H21C22.4492 6.125 23.625 7.30083 23.625 8.75V21C23.625 22.4492 22.4492 23.625 21 23.625H7C5.55082 23.625 4.375 22.4492 4.375 21V8.75C4.375 7.30083 5.55082 6.125 7 6.125H9.625V5.2227C9.625 4.75781 10.0078 4.375 10.5 4.375C10.9922 4.375 11.375 4.75781 11.375 5.2227V6.125H16.625V5.2227C16.625 4.75781 17.0078 4.375 17.5 4.375ZM21.875 13.125H6.125V21C6.125 21.4922 6.50781 21.875 7 21.875H21C21.4922 21.875 21.875 21.4922 21.875 21V13.125ZM9.625 7.875H7C6.50781 7.875 6.125 8.25781 6.125 8.75V11.375H21.875V8.75C21.875 8.25781 21.4922 7.875 21 7.875H18.375V8.7773C18.375 9.24219 17.9922 9.625 17.5 9.625C17.0078 9.625 16.625 9.24219 16.625 8.7773V7.875H11.375V8.7773C11.375 9.24219 10.9922 9.625 10.5 9.625C10.0078 9.625 9.625 9.24219 9.625 8.7773V7.875ZM7.875 19.25C7.875 18.7578 8.25781 18.375 8.75 18.375C9.24219 18.375 9.625 18.7578 9.625 19.25C9.625 19.7422 9.24219 20.125 8.75 20.125C8.25781 20.125 7.875 19.7422 7.875 19.25ZM7.875 15.75C7.875 15.2578 8.25781 14.875 8.75 14.875C9.24219 14.875 9.625 15.2578 9.625 15.75C9.625 16.2422 9.24219 16.625 8.75 16.625C8.25781 16.625 7.875 16.2422 7.875 15.75ZM11.375 19.25C11.375 18.7578 11.7578 18.375 12.25 18.375C12.7422 18.375 13.125 18.7578 13.125 19.25C13.125 19.7422 12.7422 20.125 12.25 20.125C11.7578 20.125 11.375 19.7422 11.375 19.25ZM11.375 15.75C11.375 15.2578 11.7578 14.875 12.25 14.875C12.7422 14.875 13.125 15.2578 13.125 15.75C13.125 16.2422 12.7422 16.625 12.25 16.625C11.7578 16.625 11.375 16.2422 11.375 15.75ZM14.875 19.25C14.875 18.7578 15.2578 18.375 15.75 18.375C16.2422 18.375 16.625 18.7578 16.625 19.25C16.625 19.7422 16.2422 20.125 15.75 20.125C15.2578 20.125 14.875 19.7422 14.875 19.25ZM14.875 15.75C14.875 15.2578 15.2578 14.875 15.75 14.875C16.2422 14.875 16.625 15.2578 16.625 15.75C16.625 16.2422 16.2422 16.625 15.75 16.625C15.2578 16.625 14.875 16.2422 14.875 15.75ZM18.375 19.25C18.375 18.7578 18.7578 18.375 19.25 18.375C19.7422 18.375 20.125 18.7578 20.125 19.25C20.125 19.7422 19.7422 20.125 19.25 20.125C18.7578 20.125 18.375 19.7422 18.375 19.25ZM18.375 15.75C18.375 15.2578 18.7578 14.875 19.25 14.875C19.7422 14.875 20.125 15.2578 20.125 15.75C20.125 16.2422 19.7422 16.625 19.25 16.625C18.7578 16.625 18.375 16.2422 18.375 15.75Z" fill="#1A1C1F"/>
</g>
<defs>
<clipPath id="clip0_185_657">
<rect width="28" height="28" fill="white"/>
</clipPath>
</defs>
</svg>

<svg xmlns="http://www.w3.org/2000/svg" width="28" height="28" fill="none"><g clip-path="url(#a)"><path fill="#1A1C1F" fill-rule="evenodd" d="M17.5 4.375c.492 0 .875.383.875.848v.902H21a2.626 2.626 0 0 1 2.625 2.625V21A2.626 2.626 0 0 1 21 23.625H7A2.626 2.626 0 0 1 4.375 21V8.75A2.626 2.626 0 0 1 7 6.125h2.625v-.902c0-.465.383-.848.875-.848s.875.383.875.848v.902h5.25v-.902c0-.465.383-.848.875-.848m4.375 8.75H6.125V21c0 .492.383.875.875.875h14a.864.864 0 0 0 .875-.875zm-12.25-5.25H7a.864.864 0 0 0-.875.875v2.625h15.75V8.75A.864.864 0 0 0 21 7.875h-2.625v.902a.86.86 0 0 1-.875.848.86.86 0 0 1-.875-.848v-.902h-5.25v.902a.86.86 0 0 1-.875.848.86.86 0 0 1-.875-.848zM7.875 19.25c0-.492.383-.875.875-.875s.875.383.875.875a.864.864 0 0 1-.875.875.864.864 0 0 1-.875-.875m0-3.5c0-.492.383-.875.875-.875s.875.383.875.875a.864.864 0 0 1-.875.875.864.864 0 0 1-.875-.875m3.5 3.5c0-.492.383-.875.875-.875s.875.383.875.875a.864.864 0 0 1-.875.875.864.864 0 0 1-.875-.875m0-3.5c0-.492.383-.875.875-.875s.875.383.875.875a.864.864 0 0 1-.875.875.864.864 0 0 1-.875-.875m3.5 3.5c0-.492.383-.875.875-.875s.875.383.875.875a.864.864 0 0 1-.875.875.864.864 0 0 1-.875-.875m0-3.5c0-.492.383-.875.875-.875s.875.383.875.875a.864.864 0 0 1-.875.875.864.864 0 0 1-.875-.875m3.5 3.5c0-.492.383-.875.875-.875s.875.383.875.875a.864.864 0 0 1-.875.875.864.864 0 0 1-.875-.875m0-3.5c0-.492.383-.875.875-.875s.875.383.875.875a.864.864 0 0 1-.875.875.864.864 0 0 1-.875-.875" clip-rule="evenodd"/></g><defs><clipPath id="a"><path fill="#fff" d="M0 0h28v28H0z"/></clipPath></defs></svg>
